X:26
T: DREI LEDRIGE STRUEMPF
N: E1022
O: Europa, Mitteleuropa, Deutschland; Frankreich, Elsass
R: Tanz - Lied, Spiel, Pantomime
M: 2/4
L: 1/16
K: F
c2 | c2ccA2c2 | c2ccA2
c2 | B2A2B2G2 | c4F4 |
d2d2d2B2 | c2c2c4 |
B2B2B2G2 | A2A2A4 |
d2d2d2B2 | c2c2c4 |
B2B2B2G2 | A2A2A2

@@@ Tune index: 4710
